X: 2108
T: Atholl Highlanders, The
R: jig
M: 6/8
K: Amajor
|:e3 ecA|ecA Bcd|e3 ecA|Bcd cBA|
e3 ecA|ecA Bce|a2e fed|cdB A3:|
|:Ace Ace|Bdf Bdf|Ace Ace|Bcd cBA|
Ace Ace|Bdf Bdf|a2e fed|cdB A3:|
|:a2e edc|a2e edc|a2e edc|Bcd cBA|
a2e edc|a2e edc|a2e fed|cdB A3:|
|:cAc cAc|dBd dBd|cAc cAc|B2B BAB|
cAc cAc|dBd dBd|a2e fed|cdB A3:|

